X: 16524
T: Half Gate, The
R: jig
M: 6/8
K: Gmajor
|:BA|GFG DGB|dBe dBG|ABA EAB|cAF DFA|
GFG DGB|dBe dBG|cBc dcA|AGF G:|
|:Bd|g2g faf|gdB GFG|ABA a2g|faf dfa|
g2g faf|gdB GFG|cBc dcA|AGF G:|

